X: 1841
T: Sûzinâk Aranağme (Curcuna)
C: ?
O: Turkey
F: http://compmusic.upf.edu/node/140
N: suzinak--aranagme--curcuna--1--
N: makam= suzinak
N: form= aranagme
N: usul= curcuna = 10/8
M: 10/8
L: 1/16
K: C _1/4B _7/8e ^f 
Q: 1/4=168
%%MIDI tuningsystem comma53
G8-G2B8z2  | c2d2 e2d2 c2B2 _7/8A2G6  | \
w:  ARANAĞME  |   | 
=f2_1/4e2 f2g2 _7/8a2g2 f2_7/8e4f2  | 
w:   | 
g4 _7/8a2g2 =f2e2 d2c2 B2_7/8A2  | \
w:   | 
G8-G2B8z2  | c2d2 e2d2 c2B2 _7/8A2G6  | 
w:   |   | 
g2f2 e2d2 c2B2 _7/8A2A4G2  | G8-G2G8z2  | \
w:   |   | 
G8-G2B8z2  | c2d2 e2d2 c2B2 _7/8A2G6  | 
w:  ARANAĞME  |   | 
=f2_1/4e2 f2g2 _7/8a2g2 f2_7/8e4f2  | \
w:   | 
g4 _7/8a2g2 =f2e2 d2c2 B2_7/8A2  | \
w:   | 
G8-G2B8z2  | 
w:   | 
c2d2 e2d2 c2B2 _7/8A2G6  | g2f2 e2d2 c2B2 _7/8A2A4G2  | \
w:   |   | 
G8-G2G8z2  | 
w:   | 
|


